src/lib/packages/icons/src/assets/line/film.svg

<svg xmlns="http://www.w3.org/2000/svg" width="24" height="24" fill="none"><path fill="currentColor" d="M17.625 2.25H6.375c-2.66 0-4.125 1.465-4.125 4.125v11.25c0 2.66 1.465 4.125 4.125 4.125h11.25c2.66 0 4.125-1.465 4.125-4.125V6.375c0-2.66-1.465-4.125-4.125-4.125Zm-.875 6.5h3.5v2.5h-3.5v-2.5Zm-1.5 2.5h-6.5v-7.5h6.5v7.5Zm-8 0h-3.5v-2.5h3.5v2.5Zm-3.5 1.5h3.5v2.5h-3.5v-2.5Zm5 0h6.5v7.5h-6.5v-7.5Zm8 0h3.5v2.5h-3.5v-2.5Zm3.5-6.375v.875h-3.5v-3.5h.875c1.84 0 2.625.785 2.625 2.625ZM6.375 3.75h.875v3.5h-3.5v-.875c0-1.84.785-2.625 2.625-2.625ZM3.75 17.625v-.875h3.5v3.5h-.875c-1.84 0-2.625-.785-2.625-2.625Zm13.875 2.625h-.875v-3.5h3.5v.875c0 1.84-.785 2.625-2.625 2.625Z"/></svg>

<svg width="24" height="24" viewBox="0 0 24 24" fill="none" xmlns="http://www.w3.org/2000/svg">
<path d="M17.625 2.25H6.375C3.715 2.25 2.25 3.715 2.25 6.375V17.625C2.25 20.285 3.715 21.75 6.375 21.75H17.625C20.285 21.75 21.75 20.285 21.75 17.625V6.375C21.75 3.715 20.285 2.25 17.625 2.25ZM16.75 8.75H20.25V11.25H16.75V8.75ZM15.25 11.25H8.75V3.75H15.25V11.25ZM7.25 11.25H3.75V8.75H7.25V11.25ZM3.75 12.75H7.25V15.25H3.75V12.75ZM8.75 12.75H15.25V20.25H8.75V12.75ZM16.75 12.75H20.25V15.25H16.75V12.75ZM20.25 6.375V7.25H16.75V3.75H17.625C19.465 3.75 20.25 4.535 20.25 6.375ZM6.375 3.75H7.25V7.25H3.75V6.375C3.75 4.535 4.535 3.75 6.375 3.75ZM3.75 17.625V16.75H7.25V20.25H6.375C4.535 20.25 3.75 19.465 3.75 17.625ZM17.625 20.25H16.75V16.75H20.25V17.625C20.25 19.465 19.465 20.25 17.625 20.25Z" fill="currentColor"/>
</svg>
